svg/u1f95c.svg

<svg viewBox="0 0 128 128" xmlns="http://www.w3.org/2000/svg">
  <path d="M71.38,14.81c-16.74,11.23-23.25,33.4-27.17,36.4c-9.22,7.04-26,7.88-36.4,26.16 c-9.27,16.3-2.18,30.53,5.03,37.07s21.64,1.51,21.64,1.51s23.65-13.75,23.65-15.09S74.4,75.52,81.95,67.81s37.07-22.14,37.07-22.14 s5.3-22.8,4.03-26.33C121.53,15.14,98.38-3.31,71.38,14.81z" fill="#F3AE38"/>
  <path d="M71.26,68C59.81,83.16,58.94,95.72,44.9,105.58s-32.05,8.85-32.05,8.85s9.69,10.48,28.11,6.18 c20.58-4.81,26.83-18.36,33.88-31.91c3.08-5.91,3.7-8.5,5.17-9.98c1.48-1.48,19.34-8.62,26.98-13.8s14.95-14.83,16.63-25.75 c1.97-12.81-0.59-19.84-0.59-19.84s-0.73,16.78-11.11,26.61C100.22,57.04,78.36,58.62,71.26,68z" fill="#D97A08"/>
  <path d="M13.87,77.4c-1.95,3.13-2.15,5.57-0.44,6.58c1.93,1.15,4.37-1.14,5.57-3.23 c1.2-2.09,2.02-5,0.44-6.01C17.67,73.6,15.65,74.55,13.87,77.4z" fill="#F7C875"/>
  <path d="M25.33,69.55c1.47,2.47,4.56,1.27,7.28-0.57s4.43-4.11,3.35-5.89c-1.08-1.77-4.49-0.7-6.71,0.82 C27.04,65.44,23.94,67.21,25.33,69.55z" fill="#F7C875"/>
  <path d="M53.3,51.26c2.12,1.34,4.25-0.95,6.02-3.93c1.77-2.97,2.89-6.21,0.81-7.4 c-1.95-1.12-3.99,0.33-6.1,4.22C51.63,48.58,51.6,50.18,53.3,51.26z" fill="#F7C875"/>
  <path d="M15.7,106.14c0.66,2.02,3.27,1.73,5.04,1.18c2.9-0.9,4.01-2.68,3.64-4.17s-2.87-2.02-5.32-0.98 C17.49,102.84,15.05,104.14,15.7,106.14z" fill="#D97A08"/>
  <path d="M29.18,101.76c1.33,1.75,3.61,1.38,7.1-1.3c2.71-2.08,3.78-4.89,2.58-6.34 c-1.2-1.45-2.54-0.29-5.46,1.88C30.69,98.01,28.08,100.32,29.18,101.76z" fill="#D97A08"/>
  <path d="M31.96,89.73c1.14,1.77,3.82,1.08,6.56-1.12c2.55-2.05,3.57-4.14,2.01-5.82 c-1.49-1.61-4.07,0.69-5.44,1.77C33.42,85.88,30.6,87.62,31.96,89.73z" fill="#D97A08"/>
  <path d="M45.01,87.15c-2.44,2.31-3.98,4.42-2.09,6.04c1.89,1.62,4.7-1.07,5.86-2.17 c1.16-1.11,3.7-3.83,2.01-5.69C49.11,83.48,46.17,86.05,45.01,87.15z" fill="#D97A08"/>
  <path d="M52.41,68.89c-1.61,1.98-4,4.43-2.86,6.01c1.19,1.64,4.13,1.06,6.69-2.22 c1.61-2.07,2.17-4.98,0.78-6.18C55.64,65.3,53.83,67.15,52.41,68.89z" fill="#D97A08"/>
  <path d="M69.7,56.26c0.99,2.28,4.51,1.1,7.11-0.42c2.6-1.53,4.71-3.54,3.8-5.32 c-0.83-1.63-3.74-1.53-6.79,0.29C70.76,52.62,68.85,54.31,69.7,56.26z" fill="#D97A08"/>
  <path d="M90.83,47.92c1.07,1.85,3.59,1.22,6.43-0.9c2.79-2.08,4.05-4.06,2.79-5.85 c-1.27-1.79-3.52-0.19-6.1,1.66C91.44,44.61,89.79,46.14,90.83,47.92z" fill="#D97A08"/>
  <path d="M103.52,41.2c1.44,1.36,3.67,0.11,5.88-2.23c2.32-2.45,2.89-4.4,1.78-5.6c-1.1-1.2-3.1-0.4-5.7,2.33 C103.07,38.23,102.28,40.03,103.52,41.2z" fill="#D97A08"/>
  <path d="M103.99,25.02c-2.03,2.61-4.24,4.66-2.33,6.34c1.43,1.26,4.25-0.32,6.2-2.91 c1.75-2.33,2.26-5.74,0.62-6.46C106.84,21.28,105.87,22.61,103.99,25.02z" fill="#D97A08"/>
  <path d="M113.94,24.63c-0.78,2.76-2.41,4.45-0.8,5.91c1.9,1.74,4.54-0.53,5.48-4.64 c0.86-3.79,0.13-5.58-1.74-5.51C115.01,20.45,114.58,22.39,113.94,24.63z" fill="#D97A08"/>
</svg>

<svg viewBox="0 0 128 128" xmlns="http://www.w3.org/2000/svg">
  <defs/>
  <path d="M71.38,14.81 C54.64,26.04 48.13,48.21 44.21,51.21 C34.99,58.25 18.21,59.09 7.81,77.37 C-1.46,93.67 5.63,107.9 12.84,114.44 C20.05,120.98 34.48,115.95 34.48,115.95 C34.48,115.95 58.13,102.2 58.13,100.86 C58.13,99.52 74.4,75.52 81.95,67.81 C89.5,60.1 119.02,45.67 119.02,45.67 C119.02,45.67 124.32,22.87 123.05,19.34 C121.53,15.14 98.38,-3.31 71.38,14.81 Z" fill="#F3AE38"/>
  <path d="M71.26,68 C59.81,83.16 58.94,95.72 44.9,105.58 C30.86,115.44 12.85,114.43 12.85,114.43 C12.85,114.43 22.54,124.91 40.96,120.61 C61.54,115.8 67.79,102.25 74.84,88.7 C77.92,82.79 78.54,80.2 80.01,78.72 C81.49,77.24 99.35,70.1 106.99,64.92 C114.63,59.74 121.94,50.09 123.62,39.17 C125.59,26.36 123.03,19.33 123.03,19.33 C123.03,19.33 122.3,36.11 111.92,45.94 C100.22,57.04 78.36,58.62 71.26,68 Z" fill="#D97A08"/>
  <path d="M13.87,77.4 C11.92,80.53 11.72,82.97 13.43,83.98 C15.36,85.13 17.8,82.84 19,80.75 C20.2,78.66 21.02,75.75 19.44,74.74 C17.67,73.6 15.65,74.55 13.87,77.4 Z" fill="#F7C875"/>
  <path d="M25.33,69.55 C26.8,72.02 29.89,70.82 32.61,68.98 C35.33,67.14 37.04,64.87 35.96,63.09 C34.88,61.32 31.47,62.39 29.25,63.91 C27.04,65.44 23.94,67.21 25.33,69.55 Z" fill="#F7C875"/>
  <path d="M53.3,51.26 C55.42,52.6 57.55,50.31 59.32,47.33 C61.09,44.36 62.21,41.12 60.13,39.93 C58.18,38.81 56.14,40.26 54.03,44.15 C51.63,48.58 51.6,50.18 53.3,51.26 Z" fill="#F7C875"/>
  <path d="M15.7,106.14 C16.36,108.16 18.97,107.87 20.74,107.32 C23.64,106.42 24.75,104.64 24.38,103.15 C24.01,101.66 21.51,101.13 19.06,102.17 C17.49,102.84 15.05,104.14 15.7,106.14 Z" fill="#D97A08"/>
  <path d="M29.18,101.76 C30.51,103.51 32.79,103.14 36.28,100.46 C38.99,98.38 40.06,95.57 38.86,94.12 C37.66,92.67 36.32,93.83 33.4,96 C30.69,98.01 28.08,100.32 29.18,101.76 Z" fill="#D97A08"/>
  <path d="M31.96,89.73 C33.1,91.5 35.78,90.81 38.52,88.61 C41.07,86.56 42.09,84.47 40.53,82.79 C39.04,81.18 36.46,83.48 35.09,84.56 C33.42,85.88 30.6,87.62 31.96,89.73 Z" fill="#D97A08"/>
  <path d="M45.01,87.15 C42.57,89.46 41.03,91.57 42.92,93.19 C44.81,94.81 47.62,92.12 48.78,91.02 C49.94,89.91 52.48,87.19 50.79,85.33 C49.11,83.48 46.17,86.05 45.01,87.15 Z" fill="#D97A08"/>
  <path d="M52.41,68.89 C50.8,70.87 48.41,73.32 49.55,74.9 C50.74,76.54 53.68,75.96 56.24,72.68 C57.85,70.61 58.41,67.7 57.02,66.5 C55.64,65.3 53.83,67.15 52.41,68.89 Z" fill="#D97A08"/>
  <path d="M69.7,56.26 C70.69,58.54 74.21,57.36 76.81,55.84 C79.41,54.31 81.52,52.3 80.61,50.52 C79.78,48.89 76.87,48.99 73.82,50.81 C70.76,52.62 68.85,54.31 69.7,56.26 Z" fill="#D97A08"/>
  <path d="M90.83,47.92 C91.9,49.77 94.42,49.14 97.26,47.02 C100.05,44.94 101.31,42.96 100.05,41.17 C98.78,39.38 96.53,40.98 93.95,42.83 C91.44,44.61 89.79,46.14 90.83,47.92 Z" fill="#D97A08"/>
  <path d="M103.52,41.2 C104.96,42.56 107.19,41.31 109.4,38.97 C111.72,36.52 112.29,34.57 111.18,33.37 C110.08,32.17 108.08,32.97 105.48,35.7 C103.07,38.23 102.28,40.03 103.52,41.2 Z" fill="#D97A08"/>
  <path d="M103.99,25.02 C101.96,27.63 99.75,29.68 101.66,31.36 C103.09,32.62 105.91,31.04 107.86,28.45 C109.61,26.12 110.12,22.71 108.48,21.99 C106.84,21.28 105.87,22.61 103.99,25.02 Z" fill="#D97A08"/>
  <path d="M113.94,24.63 C113.16,27.39 111.53,29.08 113.14,30.54 C115.04,32.28 117.68,30.01 118.62,25.9 C119.48,22.11 118.75,20.32 116.88,20.39 C115.01,20.45 114.58,22.39 113.94,24.63 Z" fill="#D97A08"/>
</svg>
